file/loblaws.svg

<svg clip-rule="evenodd" fill-rule="evenodd" stroke-linejoin="round" stroke-miterlimit="1.41421" viewBox="0 0 560 400" xmlns="http://www.w3.org/2000/svg"><g fill-rule="nonzero" transform="matrix(1.29433 0 0 1.29433 21.0691 5.91509)"><path d="m75.6 154.5h-16.6c-24.4.5-23.2-20.3-23.2-20.3v-17.9h-28.9v28.7c0 4 3.8 38.6 39.7 38.6h29z" fill="#f00"/><path d="m38.8 116.4v16s-2.4 19.5 18.6 19.3h18.1v-12.6h-8.1s-15.6 2-15.4-10v-12.7zm16.7 0v10.6s-1.2 9.4 11.2 9.1h8.9v-9.3h-5s-6.1.4-6-6.4v-4zm12.4 0h7.7v7.4s-7.7 1.2-7.7-3z" fill="#ff7f00"/><path d="m376.7 151.7c-8.1-1.8-16-2.5-16-7.4 0-4 4.6-4.6 7.8-4.6 5 0 9.3 1.4 9.7 6.8h13.4c-1.1-12.3-11.4-16-22.7-16-5.2 0-10.5.8-14.6 2.9l.5-1.5h-14.5l-9.4 33.9h-.2l-8.8-33.9h-13.7l-8.5 33.9h-.2l-9.4-33.9h-14.9l.5 1.3c-4.5-2-10.1-2.6-15.3-2.6-.6 0-1.1 0-1.6.1-10.1.3-19.9 3.8-22.2 13.7v-27.8h-14.1v26.8c-3.8-8.7-11.4-12.7-18.6-12.7-1.7 0-3.3.2-4.9.5-4.6 1-8.7 3.2-11.3 6.9h-.2v-21.5h-14.1v25.4c-4.3-7.3-12.4-11.6-22.7-11.6-16.1 0-26.6 10.5-26.6 26.4 0 3.8.6 7.4 1.8 10.5h-14.4c-11.6 0-11.4-5.4-11.4-9.8v-41.2h-14.2s.2 40.8 0 48.7c0 15.8 12.4 16.3 23.2 16.3h24.2v-3.7c4.5 3.5 10.3 5.4 17.3 5.4 10.3 0 18.4-4.3 22.7-11.6v10.2h13.4v-6.4h.2c2.4 4.3 6.7 6.6 12 7.4 1.5.2 3.2.3 4.9.3 7.2 0 14.8-4 18.6-12.7v11.3h14.1v-5.5c3 4.8 8.8 7.1 15.5 7.1 2.2 0 4.5-.2 6.7-.7 4-.8 7.7-2.6 10.6-5.5.1 1.7.5 3.4 1 4.9h14.4c-1.3-2-1.8-6.5-1.8-11.1v-15l8.5 26.1h14.6l8.8-33.5h.2l9.1 33.5h14.6l9.5-29.5c2.8 4.4 8.7 6.2 14.7 7.5 10.1 2.2 16.1 3.6 16.1 7.7 0 4.9-5.2 6.4-9.3 6.4-5.5 0-10.7-2.4-10.8-8.4h-13.4c.6 13.2 12.2 17.6 24.2 17.6 11.7 0 23.5-4.2 23.5-17.4-.1-9.2-8.2-12.2-16.5-14zm-226.1 21.1c-9.6 0-12.5-8-12.5-15.9 0-8 2.9-16 12.5-16 9.5 0 12.4 8.1 12.4 16s-2.9 15.9-12.4 15.9zm48.4 0c-8.4 0-12.1-7.7-12.1-15.9 0-8.5 3.7-16 12-16h.1c8.3 0 12 7.6 12 16 0 8.3-3.7 15.9-12 15.9zm69.8-10.3c0 2.9-.4 10.7-10.1 11.4-.5 0-1 .1-1.4.1-4.6 0-8.6-1.3-8.6-6.4 0-5 4-6.5 8.3-7.3.6-.1 1.2-.2 1.8-.2 3.9-.6 8-.9 10.1-2.6zm-10-10.3c-2.1.2-4.4.5-6.7.9-6.1.8-12.4 2.4-15.5 7.3v-13.1h13.7c.5-5.1 3.6-7.3 8.5-7.6h.9c4.9 0 9.2 1 9.2 6.8-.1 4.1-4.4 4.9-10.1 5.7z"/></g></svg>

<?xml version="1.0" encoding="UTF-8" standalone="no"?>
<!DOCTYPE svg PUBLIC "-//W3C//DTD SVG 1.1//EN" "http://www.w3.org/Graphics/SVG/1.1/DTD/svg11.dtd">
<svg width="100%" height="100%" viewBox="0 0 560 400" version="1.1" xmlns="http://www.w3.org/2000/svg" xmlns:xlink="http://www.w3.org/1999/xlink" xml:space="preserve" xmlns:serif="http://www.serif.com/" style="fill-rule:evenodd;clip-rule:evenodd;stroke-linejoin:round;stroke-miterlimit:1.41421;">
    <g transform="matrix(1.29433,0,0,1.29433,21.0691,5.91509)">
        <path id="red" d="M75.6,154.5L59,154.5C34.6,155 35.8,134.2 35.8,134.2L35.8,116.3L6.9,116.3L6.9,145C6.9,149 10.7,183.6 46.6,183.6L75.6,183.6L75.6,154.5" style="fill:rgb(255,0,0);fill-rule:nonzero;"/>
        <path id="orange" d="M38.8,116.4L38.8,132.4C38.8,132.4 36.4,151.9 57.4,151.7L75.5,151.7L75.5,139.1L67.4,139.1C67.4,139.1 51.8,141.1 52,129.1L52,116.4L38.8,116.4M55.5,116.4L55.5,127C55.5,127 54.3,136.4 66.7,136.1L75.6,136.1L75.6,126.8L70.6,126.8C70.6,126.8 64.5,127.2 64.6,120.4L64.6,116.4L55.5,116.4M67.9,116.4L75.6,116.4L75.6,123.8C75.6,123.8 67.9,125 67.9,120.8L67.9,116.4" style="fill:rgb(255,127,0);fill-rule:nonzero;"/>
        <path id="text" d="M376.7,151.7C368.6,149.9 360.7,149.2 360.7,144.3C360.7,140.3 365.3,139.7 368.5,139.7C373.5,139.7 377.8,141.1 378.2,146.5L391.6,146.5C390.5,134.2 380.2,130.5 368.9,130.5C363.7,130.5 358.4,131.3 354.3,133.4L354.8,131.9L340.3,131.9L330.9,165.8L330.7,165.8L321.9,131.9L308.2,131.9L299.7,165.8L299.5,165.8L290.1,131.9L275.2,131.9L275.7,133.2C271.2,131.2 265.6,130.6 260.4,130.6C259.8,130.6 259.3,130.6 258.8,130.7C248.7,131 238.9,134.5 236.6,144.4L236.6,116.6L222.5,116.6L222.5,143.4C218.7,134.7 211.1,130.7 203.9,130.7C202.2,130.7 200.6,130.9 199,131.2C194.4,132.2 190.3,134.4 187.7,138.1L187.5,138.1L187.5,116.6L173.4,116.6L173.4,142C169.1,134.7 161,130.4 150.7,130.4C134.6,130.4 124.1,140.9 124.1,156.8C124.1,160.6 124.7,164.2 125.9,167.3L111.5,167.3C99.9,167.3 100.1,161.9 100.1,157.5L100.1,116.3L85.9,116.3C85.9,116.3 86.1,157.1 85.9,165C85.9,180.8 98.3,181.3 109.1,181.3L133.3,181.3L133.3,177.6C137.8,181.1 143.6,183 150.6,183C160.9,183 169,178.7 173.3,171.4L173.3,181.6L186.7,181.6L186.7,175.2L186.9,175.2C189.3,179.5 193.6,181.8 198.9,182.6C200.4,182.8 202.1,182.9 203.8,182.9C211,182.9 218.6,178.9 222.4,170.2L222.4,181.5L236.5,181.5L236.5,176C239.5,180.8 245.3,183.1 252,183.1C254.2,183.1 256.5,182.9 258.7,182.4C262.7,181.6 266.4,179.8 269.3,176.9C269.4,178.6 269.8,180.3 270.3,181.8L284.7,181.8C283.4,179.8 282.9,175.3 282.9,170.7L282.9,155.7L291.4,181.8L306,181.8L314.8,148.3L315,148.3L324.1,181.8L338.7,181.8L348.2,152.3C351,156.7 356.9,158.5 362.9,159.8C373,162 379,163.4 379,167.5C379,172.4 373.8,173.9 369.7,173.9C364.2,173.9 359,171.5 358.9,165.5L345.5,165.5C346.1,178.7 357.7,183.1 369.7,183.1C381.4,183.1 393.2,178.9 393.2,165.7C393.1,156.5 385,153.5 376.7,151.7ZM150.6,172.8C141,172.8 138.1,164.8 138.1,156.9C138.1,148.9 141,140.9 150.6,140.9C160.1,140.9 163,149 163,156.9C163,164.8 160.1,172.8 150.6,172.8ZM199,172.8C190.6,172.8 186.9,165.1 186.9,156.9C186.9,148.4 190.6,140.9 198.9,140.9L199,140.9C207.3,140.9 211,148.5 211,156.9C211,165.2 207.3,172.8 199,172.8ZM268.8,162.5C268.8,165.4 268.4,173.2 258.7,173.9C258.2,173.9 257.7,174 257.3,174C252.7,174 248.7,172.7 248.7,167.6C248.7,162.6 252.7,161.1 257,160.3C257.6,160.2 258.2,160.1 258.8,160.1C262.7,159.5 266.8,159.2 268.9,157.5L268.8,162.5ZM258.8,152.2C256.7,152.4 254.4,152.7 252.1,153.1C246,153.9 239.7,155.5 236.6,160.4L236.6,147.3L250.3,147.3C250.8,142.2 253.9,140 258.8,139.7L259.7,139.7C264.6,139.7 268.9,140.7 268.9,146.5C268.8,150.6 264.5,151.4 258.8,152.2Z" style="fill-rule:nonzero;"/>
    </g>
</svg>
